!!!OTL: Der Ritt zum Kloster.
!!!OTL-incipit: ICH STAND AUF HOHEM BERGE
!!!ARE: Europa, Mitteleuropa, Deutschland
!!!SCT: Z1006
!!!TXL: @@DE
!!!YEM: Copyright 1995, estate of Helmut Schaffrath.
**kern	**text
*ICvox	*
*M2/4	*
*k[f#c#g#d#]	*
*E:	*
!LO:TX:a:t=Ʒur Sage vom Nonnenwerder.	!
{16eL	Jch
16g#J	.
=1	=1
8.b/	ſtand
16cc#/	auf
8b/	ho-
8a	-hem
=2	=2
4g#	Ber-
8f#	-ge,
8f#}	ſchaut
=3	=3
{8f#	ü-
8g#	-bers
8a#	tie-
8a#	-fe
=4	=4
4.b/}	Meer;
{8b/	ich
=5	=5
8ee/	ſah
8ee/	ein
8dd#/	Schifflein
8cc#/	.
=6	=6
4b/	ſchwe-
4a}	-ben,
=7	=7
{(>4g#	ſchwe-
4f#	.
=8	=8
4cc#/	.
8b/)}	-ben,
{16b/L	drei
16aJ	.
=9	=9
8g#	Gra-
8g#	-fen
8f#	wa-
8f#	-ren
=10	=10
4e	drin.
8r}	.
==	==
!!!AGN: Romanze, Ballade, Tod, Sage (Nonnen - Werber)
!!!ONB: ESAC (Essen Associative Code) Database: ZUCCAL
!!!AMT: simple duple
!!!AIN: vox
!!!EED: Helmut Schaffrath
!!!EEV: 1.0
!!@@COMMENT:"In original four voices"
!!@@END:
!!!RDF**kern: >= above
!!!GTL: I. Volks- Leuschen.
!!!URL-scan: https://www.digitale-sammlungen.de/de/view/bsb11160573?page=27
!!!ENC: Anna Maria Matuszewska
!!!EEV: 2025/01/31
*-	*-
